jsapp/svg-icons/qt-qr-code-lock.svg

<svg height="642" viewBox="0 0 642 642" width="642" xmlns="http://www.w3.org/2000/svg"><path d="m517 440.92c.074186.042345.130897.10969.16.19v.18h-.37v-.2c.03482-.059721.078672-.113693.13-.16h.08zm-420-87.92h192v192h-192zm64 128h64v-64h-64zm384-192h-192v-192h192zm-64-128h-64v64h64zm-384-64h192v192h-192zm64 128h64v-64h-64zm231.18 216.11c-.021091-33.050604 13.107657-64.751727 36.49-88.11h-75.67v143.58c3.901355-22.101994 18.610026-40.782533 39.18-49.76zm249.82 66.96v107.14c0 14.795708-11.994292 26.79-26.79 26.79h-196.42c-14.795708 0-26.79-11.994292-26.79-26.79v-107.14c0-14.795708 11.994292-26.79 26.79-26.79h13.39v-40.17c0-46.844792 37.975208-84.82 84.82-84.82s84.82 37.975208 84.82 84.82v40.18h13.39c14.791804 0 26.784479 11.988197 26.79 26.78zm-97.91 52c0-14.746003-11.953997-26.7-26.7-26.7s-26.7 11.953997-26.7 26.7 11.953997 26.7 26.7 26.7c14.730396 0 26.677932-11.929621 26.7-26.66zm13.09-119c0-22.190801-17.989199-40.18-40.18-40.18s-40.18 17.989199-40.18 40.18v40.18h80.36z"/></svg>

<svg id="Layer_1" data-name="Layer 1" xmlns="http://www.w3.org/2000/svg" viewBox="0 0 642 642"><path d="M517,440.92a.36.36,0,0,1,.16.19v.18h-.37v-.2a.67.67,0,0,1,.13-.16H517ZM97,353H289V545H97Zm64,128h64V417H161ZM545,289H353V97H545ZM481,161H417v64h64ZM97,97H289V289H97Zm64,128h64V161H161ZM392.18,446.82v-5.71A124.43,124.43,0,0,1,428.67,353H353V496.58A67,67,0,0,1,392.18,446.82ZM642,508.07V615.21A26.79,26.79,0,0,1,615.21,642H418.79A26.79,26.79,0,0,1,392,615.21V508.07a26.79,26.79,0,0,1,26.79-26.79h13.39V441.11a84.82,84.82,0,0,1,169.64,0v40.18h13.39A26.79,26.79,0,0,1,642,508.07Zm-97.91,52a26.7,26.7,0,1,0-26.7,26.7A26.7,26.7,0,0,0,544.09,560.11Zm13.09-119a40.18,40.18,0,1,0-80.36,0v40.18h80.36Z"/></svg>
